!!!COA:	Josquin des Prez
!!!CDT:	~1450-1521/08/27
!!!OTL@@LAT: Factum est autem
!!!OTL2@@LAT: Qui fuit Heli
!!!OTL3@@LAT: Qui fuit Obed
!!!AGN:	Motet
!!!SCT:	NJE 19.3
!!!SCA:	New Josquin Edition 19.3
!!!voices:	4
**kern	**kern	**kern	**kern
*staff4	*staff3	*staff2	*staff1
*Ivox	*Ivox	*Ivox	*Ivox
*I"Bassus	*I"Tenor	*I"Altus	*I"Superius
*I'B	*I'T	*I'A	*I'S
*clefF4	*clefGv2	*clefGv2	*clefG2
*k[]	*k[]	*k[]	*k[]
*>A	*>A	*>A	*>A
*M2/1	*M2/1	*M2/1	*M2/1
*met(C|)	*met(C|)	*met(C|)	*met(C|)
=1-	=1-	=1-	=1-
0r	0G	0r	0r
=2	=2	=2	=2
0r	1G	0r	0g
.	1G	.	.
=3	=3	=3	=3
0C	1.G	0r	1g
.	.	.	1g
.	2E/	.	.
=4	=4	=4	=4
1C	0E	0c	1.g
1C	.	.	.
.	.	.	2e/
=5	=5	=5	=5
1.C	1r	1c	0e
.	1E	1c	.
2AA/	.	.	.
=6	=6	=6	=6
0AA	1E	1.c	1r
.	2E/	.	1e
.	2E/	2A/	.
=7	=7	=7	=7
1AA	1E	1A	1e
1AA	[1E	1A	2e/
.	.	.	2e/
=8	=8	=8	=8
2AA/	1E]	1A	1e
2AA/	.	.	.
1AA	1r	2A/	[1e
.	.	2A/	.
=9	=9	=9	=9
0AA	1E	1A	1e]
.	1E	1A	1r
=10	=10	=10	=10
1r	0G	1B	0r
1GG	.	1B	.
=11	=11	=11	=11
1AA	1F	1.c	0r
[1C	1E	.	.
.	.	2B\	.
=12	=12	=12	=12
1C]	0r	1A	1r
1BB	.	1G	1d
=13	=13	=13	=13
1AA	0r	1c	1e
1GG	.	1B	[1g
=14	=14	=14	=14
0C	0r	0G	1g]
.	.	.	1e
=15	=15	=15	=15
[0C	0E	1c	1e
.	.	1c	1r
=16	=16	=16	=16
0C_	1E	2r	0e
.	.	2.C/	.
.	[1G	.	.
.	.	4D/	.
.	.	4E/	.
.	.	4F/	.
=17	=17	=17	=17
0C]	1G]	2G/	1e
.	.	2C/	.
.	1E	1c	[1g
=18	=18	=18	=18
0r	0G	0B	2g/]
.	.	.	4f/
.	.	.	4e/
.	.	.	1d
=19	=19	=19	=19
1r	0A	1A	1.c
1AA	.	[1c	.
.	.	.	2d/
=20	=20	=20	=20
0C	0E	2c\]	2.e/
.	.	4B\	.
.	.	4A/	4f/
.	.	2.G/	[1e
.	.	4A/	.
=21	=21	=21	=21
0D	0F	1B-	2e/]
.	.	.	4d/
.	.	.	4c/
.	.	1A	1d
=22	=22	=22	=22
0AA	0E	0A	0e
=23	=23	=23	=23
0BB-	0D	1r	1r
.	.	[1d	1g
=24	=24	=24	=24
0AA	1.E	2d\]	0a
.	.	4c\	.
.	.	4B\	.
.	.	2c\	.
.	2F/	2A/	.
=25	=25	=25	=25
0GG	0G	0d	0b
=26	=26	=26	=26
1.AA	0r	1.c	1.a
2BB/	.	4B\	4g/
.	.	4A/	4f/
=27	=27	=27	=27
0C	0G	2G/	0e
.	.	2C/	.
.	.	[1c	.
=28	=28	=28	=28
1C	1G	1c]	1e
1C	1G	[1c	1e
=29	=29	=29	=29
1C	1G	1c]	1e
1C	[1G	1c	1e
=30	=30	=30	=30
1.C	2G/]	1c	1.g
.	2E/	.	.
.	1E	[1c	.
2AA/	.	.	2c/
=31	=31	=31	=31
1AA	2r	2c\]	1c
.	2E/	2A/	.
1AA	1E	1A	[1cc
=32	=32	=32	=32
1AA	1E	1A	2cc\]
.	.	.	2b\
1AA	1E	[1c	1a
=33	=33	=33	=33
1C	0E	2c\]	1g
.	.	2B\	.
1C	.	1A	1a
=34	=34	=34	=34
1BB	1D	1G	1b
1AA	1E	1A	1e
=35	=35	=35	=35
0GG	0G	1B	1r
.	.	1B	1b
=36	=36	=36	=36
0AA	0E	1.A	1cc
.	.	.	2a/
.	.	4G/	[2cc\
.	.	4F/	.
=37	=37	=37	=37
0C	1r	1E	2cc\]
.	.	.	4b\
.	.	.	4a/
.	1G	1E	[1g
=38	=38	=38	=38
1C	1G	1c	2g/]
.	.	.	2f/
1C	1G	1c	1e
=39	=39	=39	=39
1D	1F	1B	1d
[1C	[1G	1c	[1e
=40	=40	=40	=40
1C]	1G]	1c	1e]
1D	1F	1A	1d
=41	=41	=41	=41
0AA	0E	2r	0c
.	.	2A/	.
.	.	1A	.
=42	=42	=42	=42
1AA	0r	1A	1r
1AA	.	1c	1e
=43	=43	=43	=43
1AA	1E	1A	1e
1C	1E	1G	[1e
=44	=44	=44	=44
1AA	1E	2A/	2e/]
.	.	1c	4d/
.	.	.	4c/
1GG	1G	.	1d
.	.	2B\	.
=45	=45	=45	=45
1AA	1E	1c	1c
1BB	1D	1r	1d
=46	=46	=46	=46
[0C	1.E	0c	1.g
.	2F/	.	2f/
=47	=47	=47	=47
0C]	2G/	0c	2.e/
.	2C/	.	.
.	.	.	4d/
.	[1G	.	1e
=48	=48	=48	=48
0D	2G/]	2c\	1f
.	4F/	4B\	.
.	4E/	4A/	.
.	1F	1B	1d
=49	=49	=49	=49
0C	1G	1c	0e
.	2r	1r	.
.	2G/	.	.
=50	=50	=50	=50
0r	2A/	1c	0r
.	1c	.	.
.	.	1d	.
.	2B\	.	.
=51	=51	=51	=51
0r	2c\	1c	1g
.	2C/	.	.
.	1F	1A	1a
=52	=52	=52	=52
0r	1E	2B\	1g
.	.	2.c\	.
.	1C	.	1e
.	.	4B\	.
.	.	4A/	.
.	.	4G/	.
=53	=53	=53	=53
0r	0r	2.A/	1f
.	.	8G/L	.
.	.	8F/J	.
.	.	1E	1g
=54	=54	=54	=54
0r	0r	0c	1g
.	.	.	2e/
.	.	.	[2a/
=55	=55	=55	=55
0r	0r	1c	4a/]
.	.	.	4g/
.	.	.	2.g/
.	.	1B	.
.	.	.	4f/
.	.	.	4e/
.	.	.	4d/
=56	=56	=56	=56
1r	0r	1A	0c
[1AA	.	2r	.
.	.	2A/	.
=57	=57	=57	=57
1AA]	0E	1A	1r
1AA	.	[1c	[1e
=58	=58	=58	=58
1.C	1E	2c\]	1e]
.	.	2c\	.
.	[1G	1c	1e
2C/	.	.	.
=59	=59	=59	=59
[0C	2G/]	2r	1.g
.	2G/	1c	.
.	1G	.	.
.	.	4B\	2g/
.	.	4A/	.
=60	=60	=60	=60
0C]	0E	4G/	1g
.	.	4F/	.
.	.	4E/	.
.	.	4D/	.
.	.	2C/	[1e
.	.	[2c\	.
=61	=61	=61	=61
0D	0F	2c\]	2e/]
.	.	4B\	4d/
.	.	4A/	4c/
.	.	1B	2.d/
.	.	.	4c/
=62	=62	=62	=62
0C	0E	1c	2.e/
.	.	.	4d/
.	.	2r	[1g
.	.	2c\	.
=63	=63	=63	=63
0r	0D	2B\	2g/]
.	.	2A/	4f#i/
.	.	.	4e/
.	.	2.d\	2.f#i/
.	.	4c\	4e/
=64	=64	=64	=64
1r	2.E/	4B\	0g
.	.	4A/	.
.	.	2.G/	.
.	4D/	.	.
2r	[1G	.	.
.	.	4F/	.
[2C/	.	4E/	.
.	.	4D/	.
=65	=65	=65	=65
4C/]	2G/]	4E/	0r
4BB/	.	4F/	.
4AA/	4F#i/	1D	.
4GG/	4E/	.	.
1AA	1F#i	.	.
.	.	2C/	.
=66	=66	=66	=66
2GG/	0G	2D/	1r
4C/	.	1E	.
4D\	.	.	.
4E\	.	.	1g
4F\	.	.	.
[2G\	.	[2C/	.
=67	=67	=67	=67
2G\]	0r	2C/]	0a
4F#i\	.	1c	.
4E\	.	.	.
1F#i	.	.	.
.	.	4B\	.
.	.	4A/	.
=68	=68	=68	=68
1G	1r	2B\	0g
.	.	2G/	.
1GG	1G	1d	.
=69	=69	=69	=69
1r	0A	1c	1e
1D	.	1d	1f
=70	=70	=70	=70
2GG/	0G	2.B\	1g
2.G\	.	.	.
.	.	4c\	.
.	.	2d\	[1g
4F\	.	.	.
4E\	.	[2e\	.
4D\	.	.	.
=71	=71	=71	=71
2C/	1E	4e\]	1g]
.	.	4d\	.
2E\	.	1c	.
1D	1F	.	1f
.	.	2B\	.
=72	=72	=72	=72
0C	1G	0c	0e
.	[1G	.	.
=73	=73	=73	=73
0r	1G]	1B	1r
.	1F	1A	1d
=74	=74	=74	=74
0C	0E	2G/	1e
.	.	2.A/	.
.	.	.	1c
.	.	4G/	.
.	.	2c\	.
=75	=75	=75	=75
0D	0r	2B\	1.f
.	.	1A	.
.	.	2F/	4e/
.	.	.	4d/
=76	=76	=76	=76
1C	0G	1c	1e
1E	.	2B\	1g
.	.	2c\	.
=77	=77	=77	=77
1D	0A	1d	1f
[1AA	.	[1c	[1e
=78	=78	=78	=78
1AA]	0E	2c\]	2e/]
.	.	2A/	2c/
1AA	.	1A	1c
=79	=79	=79	=79
0C	1E	0G	1r
.	[1G	.	1e
=80	=80	=80	=80
1C	1G]	1.c	1e
1C	1G	.	[1g
.	.	2d\	.
=81	=81	=81	=81
1C	1G	1e	2g/]
.	.	.	2f/
1C	1G	1c	1e
=82	=82	=82	=82
1BB	1G	1d	2.d/
.	.	.	4e/
[1AA	1F	1c	2.f/
.	.	.	4e/
=83	=83	=83	=83
1AA]	0E	1A	0c
2r	.	1r	.
[2AA/	.	.	.
=84	=84	=84	=84
2AA/]	1E	0r	0r
2GG/	.	.	.
2AA/	1E	.	.
[2C/	.	.	.
=85	=85	=85	=85
4C/]	1E	0r	0r
4BB/	.	.	.
1E	.	.	.
.	1F	.	.
2D\	.	.	.
=86	=86	=86	=86
2E\	1E	0r	0r
1G	.	.	.
.	1D	.	.
2F\	.	.	.
=87	=87	=87	=87
2G\	2E/	0r	0r
2GG/	1G	.	.
1AA	.	.	.
.	2F#i/	.	.
=88	=88	=88	=88
0GG	1G	0r	1r
.	2r	.	1g
.	[2G/	.	.
=89	=89	=89	=89
1r	4G/]	1r	1g
.	4A/	.	.
.	4B\	.	.
.	4c\	.	.
[1G	2B\	1d	1g
.	2G/	.	.
=90	=90	=90	=90
2G\]	2.B\	1d	1g
4F\	.	.	.
4E\	4c\	.	.
[1D	2.d\	1d	1a
.	4c\	.	.
=91	=91	=91	=91
2D\]	2.A/	1d	0a
4C/	.	.	.
4BB/	4B\	.	.
1AA	[1c	1e	.
=92	=92	=92	=92
0C	2c\]	0e	1.g
.	4B\	.	.
.	4A/	.	.
.	2.G/	.	.
.	.	.	2g/
.	4A/	.	.
=93	=93	=93	=93
1GG	1B	1.d	1g
[1D	[1A	.	[1f
.	.	2d\	.
=94	=94	=94	=94
2D\]	2A/]	1d	1f]
2D\	2A/	.	.
[1AA	[1A	[1c	1e
=95	=95	=95	=95
1AA]	1A]	1c]	[0e
1E	1G	1B	.
=96	=96	=96	=96
0E	0G	0B	0e]
!!LO:LB:i:g=z
=97||	=97||	=97||	=97||
*>B	*>B	*>B	*>B
*M2/1	*M2/1	*M2/1	*M2/1
*met(C|)	*met(C|)	*met(C|)	*met(C|)
!!section: Secunda pars: Qui fuit Heli
!!!OMD: Secunda pars: Qui fuit Heli
0r	0r	1.d	0r
.	.	2d\	.
=98	=98	=98	=98
0r	1.G	1d	0r
.	.	1B	.
.	2G/	.	.
=99	=99	=99	=99
0r	1G	1B	1.g
.	1E	1r	.
.	.	.	2g/
=100	=100	=100	=100
0r	1E	1B	1g
.	1r	1c	1e
=101	=101	=101	=101
0r	1E	1B	1e
.	1F	2r	1r
.	.	2A/	.
=102	=102	=102	=102
0r	1E	2.B\	1e
.	.	4c\	.
.	2r	1d	1f
.	2D/	.	.
=103	=103	=103	=103
0r	2.E/	2r	1e
.	.	2.G/	.
.	4F/	.	.
.	1G	.	2r
.	.	4A/	.
.	.	2B\	2d/
=104	=104	=104	=104
0r	2r	2c\	2.e/
.	1G	1B	.
.	.	.	4f/
.	.	.	1g
.	2E/	2G/	.
=105	=105	=105	=105
0r	2F/	2A/	2r
.	2G/	2B\	1g
.	2E/	2G/	.
.	[2A/	[2c\	2e/
=106	=106	=106	=106
0r	2A/]	2c\]	2f/
.	2G/	2B\	2g/
.	2.A/	1c	2e/
.	.	.	[2f/
.	4G/	.	.
=107	=107	=107	=107
0r	2E/	1C	4f/]
.	.	.	4e/
.	2G/	.	1e
.	1F	1r	.
.	.	.	2d/
=108	=108	=108	=108
1.C	0E	1r	0e
.	.	[1G	.
2D\	.	.	.
=109	=109	=109	=109
2E\	1r	2G/]	0r
2F\	.	2A/	.
1D	1F	1B	.
=110	=110	=110	=110
1C	2G/	1c	0r
.	1A	.	.
2r	.	1A	.
[2C/	4G/	.	.
.	4F/	.	.
=111	=111	=111	=111
2C/]	2E/	1G	0r
2BB/	2D/	.	.
2C/	2E/	2A/	.
2BB/	2D/	2G/	.
=112	=112	=112	=112
2C/	2E/	1A	0r
2AA/	2F/	.	.
1GG	2.G/	1B	.
.	4A/	.	.
=113	=113	=113	=113
1.G	4B\	1r	0r
.	4c\	.	.
.	1d	.	.
.	.	1B	.
4F\	2G/	.	.
4E\	.	.	.
=114	=114	=114	=114
2D\	2A/	1d	0r
1G	2.B\	.	.
.	.	1e	.
.	4A/	.	.
2C/	2c\	.	.
=115	=115	=115	=115
2D\	2B\	2d\	0r
2AA/	2.A/	2c\	.
2BB/	.	1d	.
.	4G/	.	.
2GG/	[2G/	.	.
=116	=116	=116	=116
1AA	2G/]	1c	0r
.	2F#i/	.	.
2.E\	2.G/	1B	.
4F\	4A/	.	.
=117	=117	=117	=117
4G\	4B\	2r	0r
4A\	4c\	.	.
1G	1B	1e	.
2F\	2A/	2d\	.
=118	=118	=118	=118
2E\	2G/	2c\	0r
1F	1A	1d	.
2E\	2G/	2c\	.
=119	=119	=119	=119
2D\	2F/	2B\	0r
2C/	2.E/	1A	.
1BB	.	.	.
.	4D/	.	.
.	4D/	2G#i/	.
.	4C/	.	.
=120	=120	=120	=120
0AA	0E	1A	0r
.	.	[1c	.
=121	=121	=121	=121
1.C	0r	2c\]	0r
.	.	2c\	.
.	.	1c	.
2C/	.	.	.
=122	=122	=122	=122
1C	1.G	2r	0r
.	.	2C/	.
2GG/	.	2D/	.
[2C/	2G/	2E/	.
=123	=123	=123	=123
4C/]	1G	1C	0r
4D\	.	.	.
4E\	.	.	.
4F\	.	.	.
2G\	1E	2r	.
2C/	.	2G/	.
=124	=124	=124	=124
1F	1D	2A/	0r
.	.	2B\	.
1E	2.E/	1G	.
.	4F/	.	.
=125	=125	=125	=125
1C	1G	1c	2r
.	.	.	2e/
1r	1r	2A/	1f
.	.	[2B\	.
=126	=126	=126	=126
0r	0r	2B\]	2d/
.	.	2G/	1e
.	.	2A/	.
.	.	2F/	2d/
=127	=127	=127	=127
0r	0r	1G	2e/
.	.	.	1g
.	.	1A	.
.	.	.	2f#i/
=128	=128	=128	=128
2r	2r	0G	1g
1C	2E/	.	.
.	4E/	.	1r
.	4F/	.	.
2C/	4G/	.	.
.	4A/	.	.
=129	=129	=129	=129
2BB/	4B\	0r	0r
.	4A/	.	.
2AA/	2.c\	.	.
2.C/	.	.	.
.	4B\	.	.
.	[2A/	.	.
4D\	.	.	.
=130	=130	=130	=130
1BB	2A/]	1r	1r
.	2G#i/	.	.
1AA	1A	2r	2r
.	.	[2c\	2e/
=131	=131	=131	=131
0r	0r	2c\]	4e/
.	.	.	4f/
.	.	2c\	4g/
.	.	.	4a/
.	.	2B\	4b\
.	.	.	4a/
.	.	2A/	[2cc\
=132	=132	=132	=132
0r	0r	2.c\	4cc\]
.	.	.	4b\
.	.	.	1a
.	.	4d\	.
.	.	1B	.
.	.	.	2g#i/
=133	=133	=133	=133
2r	2r	0A	0a
2AA/	1A	.	.
4AA/	.	.	.
4BB/	.	.	.
4C/	2A/	.	.
4D\	.	.	.
=134	=134	=134	=134
4E\	2G/	0r	0r
4D\	.	.	.
2.G\	2E/	.	.
.	2.G/	.	.
4F\	.	.	.
[2E\	.	.	.
.	4A/	.	.
=135	=135	=135	=135
2E\]	1F	1r	1r
2D\	.	.	.
1E	1E	2r	2r
.	.	[2e\	[2g/
=136	=136	=136	=136
0r	0r	2e\]	2g/]
.	.	2d\	2f/
.	.	2c\	2e/
.	.	[2d\	[2f/
=137	=137	=137	=137
0r	0r	2d\]	2f/]
.	.	2c\	2e/
.	.	2B\	2d/
.	.	[2A/	2c/
=138	=138	=138	=138
1r	0r	4A/]	1B
.	.	4G#i/	.
.	.	2G#i/	.
2r	.	2.A/	[1A
[2AA/	.	.	.
.	.	4B\	.
=139	=139	=139	=139
1AA]	0r	2c\	1A]
.	.	4B\	.
.	.	4A/	.
2.C/	.	2G/	1r
.	.	2c\	.
4BB/	.	.	.
=140	=140	=140	=140
2GG/	0r	2d\	0r
2C/	.	2.e\	.
2E\	.	.	.
.	.	4d\	.
2F\	.	[2c\	.
=141	=141	=141	=141
1D	0r	2c\]	1r
.	.	2B\	.
[1C	.	[1c	2r
.	.	.	[2e/
=142	=142	=142	=142
1C]	1G	1c]	2e/]
.	.	.	2e/
1r	2.E/	2r	2.g/
.	.	[2G/	.
.	4F/	.	4f/
=143	=143	=143	=143
0r	1G	4G/]	2d/
.	.	4A/	.
.	.	2B\	2.g/
.	1r	2c\	.
.	.	.	4a/
.	.	2G/	4b\
.	.	.	4cc\
=144	=144	=144	=144
0r	2r	2.c\	2a/
.	2G/	.	1g
.	.	4d\	.
.	2.E/	1e	.
.	.	.	[2cc\
.	4F/	.	.
=145	=145	=145	=145
0r	1G	1d	2cc\]
.	.	.	2b\
.	1r	2.c\	2cc\
.	.	.	4c/
.	.	4B\	4d/
=146	=146	=146	=146
0r	1G	4c\	4e/
.	.	4d\	4f/
.	.	1e	1g
.	2E/	.	.
.	2F/	4d\	2f/
.	.	4c\	.
=147	=147	=147	=147
*	*	*M2/1	*
*	*	*met(3/2)	*
2r	1G	3B\	2d/
.	.	3A/	.
2GG/	.	.	2.g/
.	.	3B\	.
2.C/	[1G	3E/	.
.	.	.	4e/
.	.	3F/	.
.	.	.	[2g/
.	.	3G/	.
4D\	.	.	.
=148	=148	=148	=148
*	*	*M2/1	*
*	*	*met(C|)	*
2E\	1G]	2C/	4g/]
.	.	.	4f/
2C/	.	1c	2e/
1D	[1F	.	1d
.	.	2B\	.
=149	=149	=149	=149
0AA	2F/]	0c	0a
.	2E/	.	.
.	1E	.	.
=150	=150	=150	=150
1C	2r	2r	1g
.	2E/	1c	.
1E	2.G/	.	2r
.	.	2B\	2g/
.	4F/	.	.
=151	=151	=151	=151
1F	2D/	1A	2a/
.	2.A/	.	2cc\
[1D	.	[1d	2b\
.	4G/	.	.
.	2A/	.	[2a/
=152	=152	=152	=152
2D\]	2B\	2d\]	4a/]
.	.	.	4d/
2C/	2c\	2e\	1g
1D	1A	1d	.
.	.	.	2f#i/
=153	=153	=153	=153
1E	0G	2B\	[0g
.	.	2c\	.
1r	.	2B\	.
.	.	[2e\	.
=154	=154	=154	=154
1E	0r	4e\]	1g]
.	.	4d\	.
.	.	1c	.
1G	.	.	2r
.	.	2B\	[2e/
=155	=155	=155	=155
1A	0r	2c\	4e/]
.	.	.	4d/
.	.	2A/	2f/
2G\	.	2.B\	2e/
2E\	.	.	[2g/
.	.	4A/	.
=156	=156	=156	=156
2G\	1r	2B\	4g/]
.	.	.	4f/
2A\	.	1c	1e
1F	1A	.	.
.	.	4B\	2d/
.	.	4A/	.
=157	=157	=157	=157
1E	2.B\	1.G	0e
.	4A/	.	.
1r	2B\	.	.
.	[2c\	2C/	.
=158	=158	=158	=158
1E	2c\]	1C	0r
.	4B\	.	.
.	4A/	.	.
2D\	2B\	2r	.
2C/	[2A/	2E/	.
=159	=159	=159	=159
1D	2A/]	1F	0r
.	4G/	.	.
.	4F/	.	.
1C	1E	2G/	.
.	.	2E/	.
=160	=160	=160	=160
2BB/	2D/	2G/	0r
2AA/	2E/	2A/	.
1GG	1G	2B\	.
.	.	2d\	.
=161	=161	=161	=161
0AA	1E	1c	0r
.	2r	2A/	.
.	2A/	[2c\	.
=162	=162	=162	=162
1.C	2G/	2c\]	1r
.	1c	4B\	.
.	.	4A/	.
.	.	2G/	[1g
2C/	4B\	2C/	.
.	4A/	.	.
=163	=163	=163	=163
0C	2G/	2.E/	2g/]
.	2C/	.	2g/
.	.	4F/	.
.	2.E/	1G	1g
.	4F/	.	.
=164	=164	=164	=164
0r	2G/	2C/	2r
.	4C/	1c	1e
.	4D/	.	.
.	4E/	.	.
.	4F/	.	.
.	2G/	2B\	2d/
=165	=165	=165	=165
0r	2C/	4c\	2e/
.	.	4B\	.
.	2E/	4A/	1g
.	.	4G/	.
.	1D	1A	.
.	.	.	2f#i/
=166	=166	=166	=166
2r	2r	0G	0g
1C	1E	.	.
2BB/	2D/	.	.
=167	=167	=167	=167
4C/	2E/	0r	0r
4BB/	.	.	.
4AA/	1G	.	.
4GG/	.	.	.
1AA	.	.	.
.	2F#i/	.	.
=168	=168	=168	=168
2GG/	2G/	2r	0r
2.C/	4C/	1c	.
.	4D/	.	.
.	4E/	.	.
4D\	4F/	.	.
4E\	2G/	2B\	.
4F\	.	.	.
=169	=169	=169	=169
4E\	2C/	4c\	0r
4D\	.	4B\	.
1G	2E/	4A/	.
.	.	4G/	.
.	1D	1A	.
2F#i\	.	.	.
=170	=170	=170	=170
2G\	2r	1G	2r
4C/	1c	.	1e
4D\	.	.	.
4E\	.	1r	.
4F\	.	.	.
2G\	2B\	.	2d/
=171	=171	=171	=171
2C/	4c\	0r	2e/
.	4B\	.	.
2E\	4A/	.	1g
.	4G/	.	.
1D	1A	.	.
.	.	.	2f#i/
=172	=172	=172	=172
2.E\	1G	1r	2g/
.	.	.	2.e/
4F\	.	.	.
2G\	1r	2.E/	.
.	.	.	4f/
2G\	.	.	2g/
.	.	4F/	.
=173	=173	=173	=173
2G\	2.E/	2G/	2g/
4C/	.	2G/	2.g/
4D\	4F/	.	.
4E\	2G/	2.G/	.
4F\	.	.	4f/
[2G\	2G/	.	2e/
.	.	4A/	.
=174	=174	=174	=174
2G\]	1G	4B\	2d/
.	.	4A/	.
2C/	.	1c	1e
1D	1F	.	.
.	.	2B\	2d/
=175	=175	=175	=175
*M2/1	*	*M2/1	*
*met(O/3)	*	*met(O/3)	*
3%2.C	1E	3%2.c	0e
3D\	1E	3B\	.
3%2E	.	3%2G	.
=176	=176	=176	=176
*	*M2/1	*	*
*	*met(O/3)	*	*
3%2F	3%2.D	3%4A	0r
3%4D	.	.	.
.	3E/	.	.
.	3%2F	3%2B	.
=177	=177	=177	=177
3%2C	3%2G	3%2c	0r
3%4D	3%2.F	3B\	.
.	.	3%2A	.
.	6E/	6G/	.
.	6D/	6F/	.
=178	=178	=178	=178
3%4E	3%2C	3%2G	0r
.	3%2.G	3%2C	.
3%2r	.	[3%2E	.
.	3A/	.	.
=179	=179	=179	=179
3%2.E	3%2B	3E/]	0r
.	.	3F/	.
.	3%2c	3%2G	.
3F\	.	.	.
3%2G	3%2B	3%2E	.
=180	=180	=180	=180
3%2A	3%2A	3%2F	0r
3%2G	3%2B	3%2G	.
3%2F	3%2c	3%2A	.
=181	=181	=181	=181
3%2G	3%2C	3%2E	0r
3%2F	3%2D	3%2F	.
3%2E	3%2E	3%2G	.
=182	=182	=182	=182
3%4E	3%2.G	3%2C	0r
.	.	3%2.G	.
.	3A/	.	.
3%2r	3%2B	.	.
.	.	3A/	.
=183	=183	=183	=183
3%2.E	3%2.G	3%2B	0r
.	.	3%2.c	.
3D\	3F/	.	.
3%2C	3.E/	.	.
.	.	3B\	.
.	6D/	.	.
=184	=184	=184	=184
3%2D	3%2F	3%2A	0r
3%2C	3%2E	3%2.e	.
3%2BB	3%2G	.	.
.	.	3d\	.
=185	=185	=185	=185
3%4AA	3%2A	3%2c	0r
.	3.E/	3%4B	.
.	6F/	.	.
3%2GG#i	3%2G	.	.
=186	=186	=186	=186
*M2/1	*M2/1	*M2/1	*
*met(C|)	*met(C|)	*met(C|)	*
1AA	1C	1A	0r
2.C/	2.E/	1r	.
4D\	4F/	.	.
=187	=187	=187	=187
2E\	2G/	1.c	0r
2F\	2A/	.	.
2E\	2G/	.	.
[2F\	[2A/	2c\	.
=188	=188	=188	=188
4F\]	4A/]	1c	0r
4E\	4G/	.	.
2C/	2E/	.	.
2D\	2F/	1A	.
[2C/	[2E/	.	.
=189	=189	=189	=189
4C/]	4E/]	2.G/	0r
4AA/	4D/	.	.
2BB/	2D/	.	.
.	.	8A/L	.
.	.	8G/J	.
2C/	2E/	4A/	.
.	.	4G/	.
2E\	[2G/	[2c\	.
=190	=190	=190	=190
1D	4G/]	2c\]	0r
.	4E/	.	.
.	2F/	2B\	.
1C	2G/	1c	.
.	[2A/	.	.
=191	=191	=191	=191
2r	4A/]	1r	0r
.	4G/	.	.
1D	4F/	.	.
.	4E/	.	.
.	2F/	2r	.
2C/	2E/	[2A/	.
=192	=192	=192	=192
2D\	2F/	2A/]	0r
2E\	2G/	2G/	.
1F	4D/	2.A/	.
.	4E/	.	.
.	4F/	.	.
.	4G/	4B\	.
=193	=193	=193	=193
2r	2.A/	1c	0r
1F	.	.	.
.	4G/	.	.
.	2A/	2r	.
2E\	2G/	[2c\	.
=194	=194	=194	=194
2F\	2A/	2c\]	0r
2D\	2F/	2B\	.
2C/	2G/	2c\	.
[2F\	2D/	2A/	.
=195	=195	=195	=195
2F\]	4E/	2G/	0r
.	4F/	.	.
2E\	4G/	2c\	.
.	4A/	.	.
2D\	2F/	2B\	.
2C/	[2E/	[2A/	.
=196	=196	=196	=196
1BB	2E/]	2A/]	1r
.	2D/	2G#i/	.
[1AA	[1E	1A	2r
.	.	.	[2c/
=197	=197	=197	=197
1AA]	1E]	1r	4c/]
.	.	.	4d/
.	.	.	4e/
.	.	.	4f/
1r	2r	1c	2g/
.	2A/	.	2c/
=198	=198	=198	=198
0r	2A/	1e	2.cc\
.	2A/	.	.
.	.	.	4b\
.	[1d	[1f	4a/
.	.	.	4g/
.	.	.	[2b\
=199	=199	=199	=199
0r	2d\]	2f\]	2b\]
.	2c\	2e\	2a/
.	2B\	2d\	2g/
.	2A/	2c\	[2a/
=200	=200	=200	=200
0r	1B	1d	2a/]
.	.	.	2g#i/
.	2.A/	1e	2a/
.	.	.	2A/
.	4G/	.	.
=201	=201	=201	=201
0r	4A/	2r	2.c/
.	4B\	.	.
.	1c	2A/	.
.	.	.	4d/
.	.	2.c\	2.e/
.	4B\	.	.
.	4A/	4d\	4f/
=202	=202	=202	=202
0r	2G/	2e\	2g/
.	2D/	2f\	2a/
.	2E/	2e\	2g/
.	2D/	[2f\	2f/
=203	=203	=203	=203
0r	2E/	4f\]	1g
.	.	4e\	.
.	2C/	1e	.
.	2.D/	.	1f
.	.	2d\	.
.	4C/	.	.
=204	=204	=204	=204
0r	2AA/	1e	2e/
.	1A	.	2.c/
.	.	2r	.
.	.	.	4d/
.	4G/	[2e\	4e/
.	4F/	.	4f/
=205	=205	=205	=205
0r	2E/	2e\]	2.g/
.	2.G/	4d\	.
.	.	4c\	4f/
.	.	2B\	4d/
.	4F/	.	4e/
.	4D/	[2d\	4f/
.	4E/	.	4g/
=206	=206	=206	=206
0r	4F/	4d\]	4a/
.	4G/	4c\	4b\
.	2.A/	4A/	2.cc\
.	.	4B\	.
.	.	4c\	.
.	4G/	4d\	4b\
.	2E/	2e\	[2b\
=207	=207	=207	=207
0r	1F	1A	4b\]
.	.	.	4a/
.	.	.	2a/
.	1E	1B	4g/
.	.	.	4f/
.	.	.	8g/L
.	.	.	8f/
.	.	.	8e/
.	.	.	8d/J
=208	=208	=208	=208
*	*M2/1	*M2/1	*
*	*met(O/3)	*met(O/3)	*
0r	3%2.F	3%2A	1c
.	.	3%2.c	.
.	3E/	.	1r
.	3F/	.	.
.	3E/	3d\	.
=209	=209	=209	=209
*	*	*	*M2/1
*	*	*	*met(O/3)
0r	3%2C	3%4e	3%4g
.	3%2c	.	.
.	3%2B	3%2d	3%2g
=210	=210	=210	=210
0r	3%2.c	3%2.e	3%4g
.	3B\	3d\	.
.	3%2G	3%2B	3%2e
=211	=211	=211	=211
0r	3%4A	3%4c	3%4.e
.	3%2G	3%2B	.
=212	=212	=212	=212
0r	3%2.A	3%2.c	3%4.r
.	3G/	3B\	.
.	3%2E	3%2G	.
=213	=213	=213	=213
0r	3%4c	3%4A	3%2e
.	.	.	3%2f
.	3%2B	3%2G	[3%2e
=214	=214	=214	=214
0r	3%2.c	3%2.A	3e/]
.	.	.	3d/
.	.	.	3.e/
.	3B\	3G/	.
.	.	.	6d/
.	3%2G	3%2E	3e/
.	.	.	3f/
=215	=215	=215	=215
0r	3%2B	3%2E	3%2.g
.	3%4A	3%2C	.
.	.	.	6f#i/
.	.	.	6e/
.	.	3%2D	3%2f#i
=216	=216	=216	=216
0r	3%4G	3%2.d	3%4.g
.	.	3B\	.
.	3%2r	3c\	.
.	.	3d\	.
=217	=217	=217	=217
0r	3%2.G	3%2.B	3%4.r
.	3E/	3G/	.
.	3F/	3A/	.
.	3G/	3B\	.
=218	=218	=218	=218
0r	3%2.E	3%2G	3%2.g
.	.	3%2.c	.
.	3C/	.	3e/
.	3D/	.	3f/
.	3E/	3B\	3g/
=219	=219	=219	=219
0r	3%2C	3%2.c	3%2e
.	3%4F	.	3%2.f
.	.	3B\	.
.	.	3%2A	.
.	.	.	3e/
=220	=220	=220	=220
0r	3%2G	3%2G	3%4e
.	3%2A	3%4F	.
.	3%2D	.	3%2d
=221	=221	=221	=221
*	*M2/1	*M2/1	*M2/1
*	*met(C|)	*met(C|)	*met(C|)
1r	1G	1E	0e
1C	2r	2C/	.
.	2C/	[2G/	.
=222	=222	=222	=222
1C	1E	2G/]	0r
.	.	2.A/	.
[1D	2.F/	.	.
.	.	4F/	.
.	.	[2B-i\	.
.	4E/	.	.
=223	=223	=223	=223
2D\]	4F/	4B-\]	2r
.	4E/	4A/	.
2C/	1E	1A	2a/
1BB	.	.	1b
.	2D/	2G/	.
=224	=224	=224	=224
1AA	1E	1A	2.cc\
.	.	.	4b\
1E	1r	2r	2g/
.	.	2B\	2b\
=225	=225	=225	=225
1F	1r	1d	1a
1E	2r	2.e\	2g/
.	2E/	.	[2cc\
.	.	4d\	.
=226	=226	=226	=226
0r	1G	2B\	4cc\]
.	.	.	4b\
.	.	2d\	2.b\
.	2.A/	1c	.
.	.	.	4a/
.	.	.	[2a/
.	4G/	.	.
=227	=227	=227	=227
0r	2E/	1B	2a/]
.	2G/	.	2g#i/
.	1F	2r	[1a
.	.	2A/	.
=228	=228	=228	=228
2r	1E	1.c	1a]
2AA/	.	.	.
[1C	2r	.	1r
.	2E/	4B\	.
.	.	4A/	.
=229	=229	=229	=229
2C/]	2.G/	2G/	2r
4BB/	.	2c\	2e/
4AA/	4A/	.	.
2GG/	2B\	2d\	2.g/
[2C/	[2c\	[2e\	.
.	.	.	4f/
=230	=230	=230	=230
2C/]	4c\]	2e\]	4e/
.	4B\	.	4d/
2D\	2A/	2d\	2.f/
2E\	2G/	2B\	.
.	.	.	4e/
2C/	2A/	2c\	2e/
=231	=231	=231	=231
2D\	2F/	4B\	2d/
.	.	4A/	.
2AA/	1E	1A	2c/
1BB	.	.	1d
.	2D/	2G#i/	.
=232	=232	=232	=232
2.AA/	0E	1A	1c
4BB/	.	.	.
2.C/	.	2r	1r
.	.	[2E/	.
4D\	.	.	.
=233	=233	=233	=233
2.E\	0r	4E/]	1.g
.	.	4F/	.
.	.	2G/	.
4F\	.	.	.
1G	.	2C/	.
.	.	2E/	2g/
=234	=234	=234	=234
1GG	1.G	2D/	2.g/
.	.	2.G/	.
.	.	.	4f/
1r	.	.	2e/
.	.	4A/	.
.	2G/	2B\	2d/
=235	=235	=235	=235
0r	2.G/	2E/	2e/
.	.	2B\	1g
.	4F/	.	.
.	2E/	2c\	.
.	2D/	2d\	2f#i/
=236	=236	=236	=236
2r	2E/	2G/	1g
2BB/	1G	2d\	.
2C/	.	2e\	1r
2D\	2F#i/	[2d\	.
=237	=237	=237	=237
2GG/	1G	1d]	1r
1G	.	.	.
.	1r	2e\	2r
2A\	.	2c\	2e/
=238	=238	=238	=238
2F\	0r	2.d\	2f/
2.G\	.	.	2d/
.	.	4B\	.
.	.	[1B	2.e/
4E\	.	.	.
[2E\	.	.	.
.	.	.	4f/
=239	=239	=239	=239
2E\]	2r	2B\]	1g
2C/	2E/	2c\	.
2D\	2F/	2A/	1r
2BB/	2D/	2B\	.
=240	=240	=240	=240
2.C/	2.E/	2G/	1r
.	.	2.c\	.
4BB/	4F/	.	.
1GG	1G	.	2r
.	.	4B\	.
.	.	2B\	[2g/
=241	=241	=241	=241
1C	0r	2G/	2g/]
.	.	2c\	2e/
1D	.	2A/	1f
.	.	[2B\	.
=242	=242	=242	=242
2.E\	2r	4B\]	0g
.	.	4G/	.
.	1G	1G	.
4D\	.	.	.
2E\	.	.	.
2C/	2E/	[2c\	.
=243	=243	=243	=243
1D	1F	2c\]	1f
.	.	2B\	.
[1C	[1G	2.c\	1e
.	.	4B\	.
=244	=244	=244	=244
1C]	1G]	2G/	1e
.	.	2c\	.
2.D\	1F	2B\	1r
.	.	[2A/	.
4AA/	.	.	.
=245	=245	=245	=245
1AA	1E	2A/]	1r
.	.	4G/	.
.	.	4F/	.
2r	1E	1G	2r
2C/	.	.	2c/
=246	=246	=246	=246
1C	2r	2C/	1e
.	2G/	2.c\	.
1FF	2.A/	.	1f
.	.	4B\	.
.	.	[2A/	.
.	4G/	.	.
=247	=247	=247	=247
1BB-	2F/	2A/]	1d
.	2D/	2G/	.
1AA	1E	1A	1c
=248	=248	=248	=248
1D	1F	2r	1d
.	.	2A/	.
1C	2G/	[1c	1e
.	2C/	.	.
=249	=249	=249	=249
2r	2.G/	2c\]	2r
2E\	.	4B\	2e/
.	4A/	4A/	.
1E	4B\	1G	1g
.	4A/	.	.
.	[2c\	.	.
=250	=250	=250	=250
1AA	4c\]	2r	2.a/
.	4B\	.	.
.	1A	1c	.
.	.	.	4g/
1D	.	.	4f/
.	.	.	4e/
.	4G/	2B\	2f/
.	4F/	.	.
=251	=251	=251	=251
1C	1G	2c\	2e/
.	.	1e	1cc
1F	1A	.	.
.	.	2d\	4b\
.	.	.	4a/
=252	=252	=252	=252
0E	0B	0e	0g
=253	=253	=253	=253
1r	1r	1r	1r
1E	1B	1e	1g
=254	=254	=254	=254
1G	1B	2.d\	1g
.	.	4c\	.
1G	2.B\	1d	1g
.	8A/L	.	.
.	8G/J	.	.
=255	=255	=255	=255
1.C	2.G/	0c	1.e
.	4F/	.	.
.	2.E/	.	.
4BB/	.	.	2f/
4AA/	8D/L	.	.
.	8C/J	.	.
=256	=256	=256	=256
1GG	1D	1B	1g
1AA	1C	[1A	2e/
.	.	.	[2f/
=257	=257	=257	=257
0BB	0D	2A/]	4f/]
.	.	.	4e/
.	.	4G#i/	2.g/
.	.	4F#i/	.
.	.	1G#i	.
.	.	.	4f/
.	.	.	4e/
.	.	.	4d/
=258	=258	=258	=258
[0AA	1E	[0A	[0c
.	1F	.	.
=259	=259	=259	=259
0AA]	0E	0A]	0c]
!!LO:LB:i:g=z
=260||	=260||	=260||	=260||
*>C	*>C	*>C	*>C
*M2/1	*M2/1	*M2/1	*M2/1
*met(C|)	*met(C|)	*met(C|)	*met(C|)
!!section: Tertia pars: Qui fuit Obed
!!!OMD: Tertia pars: Qui fuit Obed
0r	1.G	0r	0r
.	2G/	.	.
=261	=261	=261	=261
0r	1G	0r	1.g
.	1E	.	.
.	.	.	2g/
=262	=262	=262	=262
1.C	0E	0r	1g
.	.	.	1e
2C/	.	.	.
=263	=263	=263	=263
1C	0r	1.c	0e
1AA	.	.	.
.	.	2c\	.
=264	=264	=264	=264
0AA	1r	1c	0r
.	1E	1A	.
=265	=265	=265	=265
0r	1F	0A	0r
.	1D	.	.
=266	=266	=266	=266
0C	2.E/	0r	1r
.	4F/	.	.
.	2G/	.	1e
.	[2A/	.	.
=267	=267	=267	=267
1D	4A/]	1r	1f
.	4G/	.	.
.	4F/	.	.
.	4E/	.	.
1D	2.F/	1A	1d
.	4G/	.	.
=268	=268	=268	=268
0C	1G	1c	2.e/
.	.	.	4f/
.	1r	2.c\	2g/
.	.	.	[2a/
.	.	4B\	.
=269	=269	=269	=269
0D	0r	2.A/	4a/]
.	.	.	4g/
.	.	.	4f/
.	.	4G/	4e/
.	.	1A	2.f/
.	.	.	4e/
=270	=270	=270	=270
0GG	1.G	0B	1g
.	.	.	1r
.	2G/	.	.
=271	=271	=271	=271
0r	1G	0E	1.g
.	1E	.	.
.	.	.	2g/
=272	=272	=272	=272
1.C	1E	0r	1g
.	2r	.	1e
2C/	2E/	.	.
=273	=273	=273	=273
1C	1G	1.c	1e
1AA	2.A/	.	2r
.	.	2c\	[2e/
.	4G/	.	.
=274	=274	=274	=274
0AA	2E/	1c	4e/]
.	.	.	4d/
.	2.A/	.	2e/
.	.	1A	2f/
.	4G/	.	.
.	4F/	.	[2e/
.	4E/	.	.
=275	=275	=275	=275
1r	2F/	1A	2e/]
.	2F/	.	2d/
1AA	1E	1c	[1e
=276	=276	=276	=276
1E	2r	2B\	1e]
.	2G/	1c	.
1F	1A	.	1r
.	.	4B\	.
.	.	4A/	.
=277	=277	=277	=277
2E\	2.G/	2c\	0r
2.G\	.	2B\	.
.	4A/	.	.
.	4B\	2.E/	.
4F\	4A/	.	.
[2E\	[2c\	.	.
.	.	4F/	.
=278	=278	=278	=278
2E\]	4c\]	2G/	0r
.	4B\	.	.
4D\	1A	2A/	.
4C/	.	.	.
1BB	.	1B	.
.	2G#i/	.	.
=279	=279	=279	=279
0AA	[0A	1E	1r
.	.	1r	[1e
=280	=280	=280	=280
0r	0A]	1.c	2e/]
.	.	.	2e/
.	.	.	2.e/
.	.	2c\	.
.	.	.	4f/
=281	=281	=281	=281
0r	0r	1c	2g/
.	.	.	1a
.	.	1B	.
.	.	.	2g#i/
=282	=282	=282	=282
2r	1r	1A	1a
2AA/	.	.	.
1C	2r	1r	1r
.	2E/	.	.
=283	=283	=283	=283
1D	1F	0r	0r
2.GG/	2E/	.	.
.	[2D/	.	.
4AA/	.	.	.
=284	=284	=284	=284
2BB/	2D/]	2r	0r
2C/	1G	2G/	.
1AA	.	1c	.
.	2F#i/	.	.
=285	=285	=285	=285
1GG	1G	1B	1g
1r	1r	2G/	2e/
.	.	2A/	2f/
=286	=286	=286	=286
0r	0r	2B\	1g
.	.	2.c\	.
.	.	.	1g
.	.	4B\	.
.	.	4A/	.
.	.	4G/	.
=287	=287	=287	=287
0r	0r	2A/	2f/
.	.	2E/	1e
.	.	1F	.
.	.	.	2d/
=288	=288	=288	=288
2r	1r	0E	0e
2AA/	.	.	.
2.C/	2r	.	.
.	[2c\	.	.
4D\	.	.	.
=289	=289	=289	=289
2E\	2c\]	0r	0r
2.F\	2c\	.	.
.	1c	.	.
4E\	.	.	.
4D\	.	.	.
4C/	.	.	.
=290	=290	=290	=290
2D\	2B\	0r	0r
2AA/	1A	.	.
1BB	.	.	.
.	2G#i/	.	.
=291	=291	=291	=291
0AA	0A	2r	1r
.	.	2A/	.
.	.	2.c\	2r
.	.	.	[2cc\
.	.	4d\	.
=292	=292	=292	=292
0r	0r	2e\	2cc\]
.	.	2.f\	2cc\
.	.	.	1cc
.	.	4e\	.
.	.	4d\	.
.	.	4c\	.
=293	=293	=293	=293
0r	0r	2d\	2b\
.	.	2A/	1a
.	.	1B	.
.	.	.	2g#i/
=294	=294	=294	=294
1r	2r	1A	0a
.	2A/	.	.
2r	1c	2r	.
2AA/	.	[2e\	.
=295	=295	=295	=295
2E\	2B\	2e\]	2r
2F\	2A/	2d\	1a
2C/	2.c\	2c\	.
2G\	.	[2d\	2g/
.	4B\	.	.
=296	=296	=296	=296
2D\	2A/	4d\]	2f/
.	.	4c\	.
2.E\	2G/	2c\	2.g/
.	2E/	2B\	.
4D\	.	.	4f/
2D\	4F/	[2A/	2f/
.	4G/	.	.
=297	=297	=297	=297
2C/	2A/	2A/]	2e/
2BB/	2D/	2G/	1d
1AA	1E	1A	.
.	.	.	2c#i/
=298	=298	=298	=298
1D	0D	1r	0d
1GG	.	[1d	.
=299	=299	=299	=299
1.G	0r	2d\]	0r
.	.	2d\	.
.	.	1d	.
2G\	.	.	.
=300	=300	=300	=300
1G	0r	1B	0r
1E	.	1B	.
=301	=301	=301	=301
1E	2r	1r	0r
.	2E/	.	.
1r	2F/	2r	.
.	2D/	2B\	.
=302	=302	=302	=302
1r	2.E/	2c\	0r
.	.	2A/	.
.	4F/	.	.
2r	1G	2.B\	.
2GG/	.	.	.
.	.	4c\	.
=303	=303	=303	=303
4GG/	2r	1d	0r
4AA/	.	.	.
4BB/	2G/	.	.
4C/	.	.	.
2D\	2F/	1r	.
2AA/	[2E/	.	.
=304	=304	=304	=304
1BB	4E/]	2r	0r
.	4D/	.	.
.	2D/	2d\	.
2AA/	2E/	2c\	.
2GG/	[2G/	[2B\	.
=305	=305	=305	=305
1D	2G/]	4B\]	1r
.	.	4A/	.
.	2F#i/	2A/	.
1GG	2.G/	2.B\	2r
.	.	.	2g/
.	8A/L	4A/	.
.	8G/J	.	.
=306	=306	=306	=306
0r	2A/	2c\	2f/
.	2E/	2.B\	1e
.	1F	.	.
.	.	8A/L	.
.	.	8G/J	.
.	.	2A/	2d/
=307	=307	=307	=307
2r	2E/	2B\	1e
2G\	2B\	2E/	.
2F\	2A/	2r	2r
[2E\	4G/	[2e\	2cc\
.	4A/	.	.
=308	=308	=308	=308
4E\]	4B\	2e\]	2b\
4D\	4c\	.	.
2D\	2d\	2f\	2.a/
1E	1B	1e	.
.	.	.	4g#i/
.	.	.	2g#i/
=309	=309	=309	=309
0AA	1A	0e	1a
.	1r	.	2r
.	.	.	[2a/
=310	=310	=310	=310
2r	0c	0r	4a/]
.	.	.	4g/
2F\	.	.	2a/
2E\	.	.	2g/
[2F\	.	.	[2a/
=311	=311	=311	=311
2F\]	1c	0r	2a/]
4E\	.	.	4g/
4D\	.	.	4f/
1C	1c	.	2.e/
.	.	.	4d/
=312	=312	=312	=312
2r	0A	0r	2e/
2D\	.	.	2f/
2C/	.	.	2e/
[2D\	.	.	[2f/
=313	=313	=313	=313
2D\]	1A	0r	2f/]
4C/	.	.	4e/
4BB/	.	.	4d/
2AA/	2r	.	2c/
2D\	2A/	.	[2d/
=314	=314	=314	=314
2GG/	1B	0r	4d/]
.	.	.	4c/
2G\	.	.	4d/
.	.	.	4e/
2F\	2A/	.	2f/
[2G\	[2B\	.	[2d/
=315	=315	=315	=315
2G\]	2B\]	0r	4d/]
.	.	.	4c/
4F\	2G/	.	4d/
4E\	.	.	4e/
2D\	2A/	.	2f/
2G\	2B\	.	2d/
=316	=316	=316	=316
4C/	1c	2r	2.g/
4D\	.	.	.
4E\	.	2e\	.
4F\	.	.	4a/
2G\	1r	2d\	4b\
.	.	.	4a/
2A\	.	2c\	[2cc\
=317	=317	=317	=317
4AA/	0r	2e\	2cc\]
4BB/	.	.	.
4C/	.	4d\	4b\
4D\	.	4c\	4a/
2.E\	.	2B\	2.g/
.	.	2e\	.
4F\	.	.	4a/
=318	=318	=318	=318
2G\	0r	2d\	2b\
2A\	.	2c\	1a
1B	.	2.d\	.
.	.	.	2g#i/
.	.	4e\	.
=319	=319	=319	=319
1A	1r	2f\	0a
.	.	1e	.
1AA	2r	.	.
.	2A/	2c\	.
=320	=320	=320	=320
2r	1c	2e\	2r
2C/	.	2.e\	2e/
1E	2B\	.	1g
.	.	4d\	.
.	[2c\	4c\	.
.	.	4B\	.
=321	=321	=321	=321
2.F\	2c\]	2A/	2.a/
.	2A/	2c\	.
4E\	.	.	4g/
2D\	2B\	2d\	2f/
2C/	2c\	2e\	2e/
=322	=322	=322	=322
1D	1A	2.d\	1f
.	.	4c\	.
1E	2.G/	2.B\	1e
.	4A/	4A/	.
=323	=323	=323	=323
2r	4B\	1G	2r
.	4G/	.	.
2E\	1c	.	2.e/
1G	.	1r	.
.	.	.	4f/
.	2B\	.	2g/
=324	=324	=324	=324
2.A\	4c\	2r	2e/
.	4B\	.	.
.	4c\	2c\	1a
4G\	4B\	.	.
2F\	4c\	2A/	.
.	4B\	.	.
2E\	[2e\	[2B\	2g/
=325	=325	=325	=325
1F	2e\]	4B\]	2.a/
.	.	4A/	.
.	2d\	2.A/	.
.	.	.	4b\
1E	1e	.	2cc\
.	.	8G/L	.
.	.	8F/J	.
.	.	[2G/	2b\
=326	=326	=326	=326
2r	1E	2G/]	2.g/
1E	.	2C/	.
.	.	.	4f/
.	2r	2.c\	4e/
.	.	.	4d/
2C/	[2A/	.	2e/
.	.	4B\	.
=327	=327	=327	=327
2D\	2A/]	4A/	2.f/
.	.	4G/	.
2AA/	2F/	1A	.
.	.	.	4e/
1BB	2G/	.	4d/
.	.	.	4c/
.	2D/	2G/	[2d/
=328	=328	=328	=328
1AA	1E	1A	2d/]
.	.	.	2c#i/
1D	1D	1A	[1d
=329	=329	=329	=329
1GG	2r	2.B\	1d]
.	1G	.	.
.	.	4G/	.
1r	.	1G	2r
.	2G/	.	[2g/
=330	=330	=330	=330
0r	2.G/	0r	2g/]
.	.	.	2g/
.	4F/	.	.
.	2E/	.	2.g/
.	2D/	.	.
.	.	.	4f/
=331	=331	=331	=331
0r	2E/	0r	2e/
.	2F/	.	2d/
.	1G	.	2e/
.	.	.	[2g/
=332	=332	=332	=332
1r	1A	2r	2g/]
.	.	2A/	2f#i/
2r	1G	2B\	1g
2E\	.	2G/	.
=333	=333	=333	=333
2F\	1r	2A/	0r
2D\	.	2B\	.
2E\	2r	1c	.
2F\	2A/	.	.
=334	=334	=334	=334
1G	2B\	0r	2r
.	2G/	.	2e/
1r	2A/	.	2f/
.	2B\	.	2d/
=335	=335	=335	=335
1r	1c	2r	2e/
.	.	2A/	2f/
2r	1r	2B\	1g
2E\	.	2G/	.
=336	=336	=336	=336
2F\	1r	2A/	0r
2D\	.	2B\	.
2E\	2r	1c	.
2F\	2A/	.	.
=337	=337	=337	=337
2.G\	2B\	0r	2r
.	2G/	.	2e/
8F\L	.	.	.
8E\J	.	.	.
1D	2A/	.	2f/
.	2B\	.	2d/
=338	=338	=338	=338
0C	1c	1r	2.e/
.	.	.	4f/
.	1r	2r	[1g
.	.	2G/	.
=339	=339	=339	=339
2r	0r	2.E/	1g]
2G\	.	.	.
.	.	4F/	.
2.E\	.	1G	2r
.	.	.	2g/
4F\	.	.	.
=340	=340	=340	=340
1G	2r	1C	2.e/
.	2G/	.	.
.	.	.	4f/
[1C	2.E/	2r	1g
.	.	[2c\	.
.	4F/	.	.
=341	=341	=341	=341
1C]	1G	2c\]	2c/
.	.	4B\	1cc
.	.	4A/	.
1C	1G	1e	.
.	.	.	4b\
.	.	.	4a/
=342	=342	=342	=342
1D	1F	2.d\	2b\
.	.	.	1a
.	.	4c\	.
1E	1E	1B	.
.	.	.	2g#i/
=343	=343	=343	=343
*	*M2/1	*M2/1	*
*	*met(O/3)	*met(O/3)	*
0AA	3%4.E	3%4A	0a
.	.	3%2A	.
=344	=344	=344	=344
*M2/1	*	*	*
*met(O/3)	*	*	*
3%4.r	3%2r	3%2.G	0r
.	3%2C	.	.
.	.	3A/	.
.	3%2D	3%2B	.
=345	=345	=345	=345
3%2.C	3%2.E	3%2c	0r
.	.	3%2A	.
3D\	3F/	.	.
3%2E	3%2G	3%2G	.
=346	=346	=346	=346
3%2F	3%2.A	3%2.c	0r
3%4D	.	.	.
.	3G/	6B\	.
.	.	6A/	.
.	3%2F	3%2B	.
=347	=347	=347	=347
3%2C	3%2E	3%2c	0r
3%4D	3%2F	3%2A	.
.	3%2D	3%2d	.
=348	=348	=348	=348
3%4E	3%2.G	3%2c	0r
.	.	3%2.B	.
.	3A/	.	.
3%2r	3%2B	.	.
.	.	3E/	.
=349	=349	=349	=349
3%2.E	3%2.c	3%4e	0r
3F\	6B\	.	.
.	6A/	.	.
3%2G	3%2B	3%2d	.
=350	=350	=350	=350
3%2.A	3%2c	3%2.c	0r
.	3%2F	.	.
3G\	.	3B\	.
3%2F	[3%2c	3c\	.
.	.	3d\	.
=351	=351	=351	=351
3%2E	3c\]	3%2.e	0r
.	3B\	.	.
3%4F	3.A/	.	.
.	.	6d\	.
.	6G/	6c\	.
.	3%2A	3%2d	.
=352	=352	=352	=352
*M2/1	*M2/1	*M2/1	*
*met(C|)	*met(C|)	*met(C|)	*
1E	1B	2.e\	0r
.	.	4d\	.
1r	2A/	2c\	.
.	2G/	2B\	.
=353	=353	=353	=353
1r	1A	2c\	0r
.	.	2A/	.
1E	1G	1B	.
=354	=354	=354	=354
2D\	2F/	0r	0r
2C/	2E/	.	.
1D	1F	.	.
=355	=355	=355	=355
1C	2.E/	1e	0r
.	4F/	.	.
2BB/	2G/	2d\	.
[2AA/	2A/	2c\	.
=356	=356	=356	=356
4AA/]	1B	1d	0r
4GG#i/	.	.	.
2GG#i/	.	.	.
2AA/	2E/	1c	.
[2E\	[2G/	.	.
=357	=357	=357	=357
4E\]	4G/]	2B\	0r
4D\	4F/	.	.
2C/	1E	2.A/	.
1BB	.	.	.
.	.	4G#i/	.
.	2D/	2G#i/	.
=358	=358	=358	=358
0AA	1.E	1A	0r
.	.	2r	.
.	2C/	[2c\	.
=359	=359	=359	=359
0r	1C	2c\]	2r
.	.	2c\	1g
.	1r	2.c\	.
.	.	.	2g/
.	.	8B/L	.
.	.	8A/J	.
=360	=360	=360	=360
0r	0r	2B\	1g
.	.	1c	.
.	.	.	1e
.	.	4B\	.
.	.	4A/	.
=361	=361	=361	=361
1r	0r	4G/	0e
.	.	4F/	.
.	.	4E/	.
.	.	4D/	.
2r	.	2C/	.
2E\	.	2c\	.
=362	=362	=362	=362
2F\	1r	2A/	0r
2D\	.	2d\	.
2.E\	2r	2B\	.
.	2E/	2c\	.
4C/	.	.	.
=363	=363	=363	=363
2D\	2F/	2A/	0r
2BB/	2D/	2B\	.
2C/	2E/	1G	.
2GG/	[2G/	.	.
=364	=364	=364	=364
1AA	2G/]	1r	1r
.	2F#i/	.	.
1GG	1G	2r	1g
.	.	2B\	.
=365	=365	=365	=365
0r	0r	2c\	2e/
.	.	2A/	2f/
.	.	2.B\	2.g/
.	.	4G/	4e/
=366	=366	=366	=366
0r	0r	2A/	2f/
.	.	2E/	1e
.	.	1F	.
.	.	.	2d/
=367	=367	=367	=367
0C	0G	1.E	1e
.	.	.	2r
.	.	[2G/	2e/
=368	=368	=368	=368
1C	1E	4G/]	1g
.	.	4C/	.
.	.	1c	.
1D	1F	.	1f
.	.	2B\	.
=369	=369	=369	=369
0C	0G	0c	0e
=370	=370	=370	=370
1GG	1G	1B	1d
2.C/	[1G	1c	2e/
.	.	.	[2g/
4D\	.	.	.
=371	=371	=371	=371
2E\	1G]	2B\	2g/]
2C/	.	2c\	4f/
.	.	.	4e/
1D	1F	1A	1d
=372	=372	=372	=372
[0AA	0E	1r	0c
.	.	1A	.
=373	=373	=373	=373
0AA]	1r	0c	0r
.	1E	.	.
=374	=374	=374	=374
0E	0G	0B	0r
=375	=375	=375	=375
1r	0A	1A	1r
1AA	.	[1c	1e
=376	=376	=376	=376
0C	0E	2c\]	0e
.	.	4B\	.
.	.	4A/	.
.	.	2.G/	.
.	.	4A/	.
=377	=377	=377	=377
0D	0F	1B	0d
.	.	1A	.
=378	=378	=378	=378
0AA	1E	1r	1c
.	[1F	1A	1cc
=379	=379	=379	=379
1AA	1F]	1A	1cc
1AA	1E	1A	1cc
=380	=380	=380	=380
0BB	0D	1F	1dd
.	.	1G	1dd
=381	=381	=381	=381
0AA	1.E	0A	1.cc
.	2F/	.	4b\
.	.	.	4a/
=382	=382	=382	=382
0GG	0G	0d	0b
=383	=383	=383	=383
1.AA	0r	1c	1.cc
.	.	[1e	.
2BB/	.	.	4b\
.	.	.	4a/
=384	=384	=384	=384
1C	1r	2e\]	0g
.	.	4d\	.
.	.	4c\	.
1r	1G	2.B\	.
.	.	4c\	.
=385	=385	=385	=385
1GG	1G	1d	1r
1GG	1G	1G	1g
=386	=386	=386	=386
1GG	[0G	1r	1g
[1C	.	1G	1g
=387	=387	=387	=387
2C/]	0G]	1G	1cc
2D\	.	.	.
1E	.	1G	2b\
.	.	.	[2cc\
=388	=388	=388	=388
0AA	0A	0c	4cc\]
.	.	.	4b\
.	.	.	4a/
.	.	.	4g/
.	.	.	1a
=389	=389	=389	=389
1.C	0E	1c	0g
.	.	1G	.
2BB/	.	.	.
=390	=390	=390	=390
0AA	1.E	0c	0a
.	2F/	.	.
=391	=391	=391	=391
0GG	[0Gl	0B	0d
=392	=392	=392	=392
1.C	0G_	1.c	1.e
2D\	.	4B\	2f/
.	.	4A/	.
=393	=393	=393	=393
2E\	0G_	1.G	[0gl
2C/	.	.	.
2.E\	.	.	.
.	.	2A/	.
4F\	.	.	.
=394	=394	=394	=394
0G	0G_	2B\	0g_
.	.	2G/	.
.	.	2.B\	.
.	.	4c\	.
=395	=395	=395	=395
0GGl	0G]	0dl	0g]
==	==	==	==
*-	*-	*-	*-
!!!RDF**kern: l=long note in original notation
!!!RDF**kern: i=editorial accidental
!!!ENC:	Jesse Rodin; Victoria Chang 2011/05/22
!!!END:	2011/05/22/
!!!EED:	Jesse Rodin
!!!EEV:	2011/08/18/
!!attribution-level@Jos: 2 (slightly less secure)
!!!ONB:	Translated from MusicXML and edited on 2011/08/18/ by Craig Sapp
!!muse2ps: u^(2) @{OTL2} (3) @{OTL3}^C^@{COA}?\n@{SCT}^i2I150v90,90,90,150Q16
